X:467
T:Fug al-Nakhal
N:Iraqi lyrical song
Z:Jack Campin, http://www.campin.me.uk/
F:Jack Campin's Nine-Note Tunebook
% last edit 03-02-2013
C:Uthman al-Muwsli
T:ABCAB
P:ABCB
M:C
L:1/8
Q:1/4=120
K:AMin
P:A
L:1/8
 z2(EA A2A2)|(A3BA2)           (^GA)|(BcBA A^GF2)|(^G4   AGFE):|
P:B
 z2(EA A2A2)|(A3BA2)           (^GA)|(BcBA A^GF2)|(^G4   AGFE) |
(BA`A^G GFFE | F3)(F/E/ D/E/D/E/ FE)|(BAA^G GFFE)|(EF^GA BGA2)||
P:C
L:1/16
z2 (cB cdcB) (BcBA) (ABA^G |^G2)(BA BcBA) (ABAG) (GAGF|
F2)(A^G ABAG) (GAGF) (FGFE)|E2``F2`^G2A2   B2G2   A4 :|

